static/factsheet/kernteam-community.svg

<svg width="374" height="47" viewBox="0 0 374 47" fill="none" xmlns="http://www.w3.org/2000/svg">
<path d="M83.9819 31.0001V19.0961H86.8619L87.1019 20.6321H87.1979C87.6939 20.1361 88.2219 19.7121 88.7819 19.3601C89.3419 18.9921 90.0139 18.8081 90.7979 18.8081C91.6459 18.8081 92.3259 18.9841 92.8379 19.3361C93.3659 19.6721 93.7819 20.1601 94.0859 20.8001C94.6139 20.2561 95.1739 19.7921 95.7659 19.4081C96.3579 19.0081 97.0459 18.8081 97.8299 18.8081C99.1099 18.8081 100.046 19.2401 100.638 20.1041C101.246 20.9521 101.55 22.1201 101.55 23.6081V31.0001H98.0219V24.0641C98.0219 23.2001 97.9019 22.6081 97.6619 22.2881C97.4379 21.9681 97.0699 21.8081 96.5579 21.8081C95.9659 21.8081 95.2859 22.1921 94.5179 22.9601V31.0001H90.9899V24.0641C90.9899 23.2001 90.8699 22.6081 90.6299 22.2881C90.4059 21.9681 90.0379 21.8081 89.5259 21.8081C88.9339 21.8081 88.2619 22.1921 87.5099 22.9601V31.0001H83.9819Z" fill="#004152" fill-opacity="0.61"/>
<path d="M74.3257 31.2881C73.2377 31.2881 72.3737 30.9441 71.7337 30.2561C71.0937 29.5521 70.7737 28.6961 70.7737 27.6881C70.7737 26.4401 71.3017 25.4641 72.3577 24.7601C73.4137 24.0561 75.1177 23.5841 77.4697 23.3441C77.4377 22.8161 77.2777 22.4001 76.9897 22.0961C76.7177 21.7761 76.2537 21.6161 75.5977 21.6161C75.1017 21.6161 74.5977 21.7121 74.0857 21.9041C73.5737 22.0961 73.0297 22.3601 72.4537 22.6961L71.1817 20.3681C71.9337 19.9041 72.7337 19.5281 73.5817 19.2401C74.4457 18.9521 75.3417 18.8081 76.2697 18.8081C77.7897 18.8081 78.9577 19.2481 79.7737 20.1281C80.5897 21.0081 80.9977 22.3601 80.9977 24.1841V31.0001H78.1177L77.8777 29.7761H77.7817C77.2857 30.2241 76.7497 30.5921 76.1737 30.8801C75.6137 31.1521 74.9977 31.2881 74.3257 31.2881ZM75.5257 28.5521C75.9257 28.5521 76.2697 28.4641 76.5577 28.2881C76.8617 28.0961 77.1657 27.8481 77.4697 27.5441V25.4561C76.2217 25.6161 75.3577 25.8721 74.8777 26.2241C74.3977 26.5601 74.1577 26.9601 74.1577 27.4241C74.1577 27.8081 74.2777 28.0961 74.5177 28.2881C74.7737 28.4641 75.1097 28.5521 75.5257 28.5521Z" fill="#004152" fill-opacity="0.61"/>
<path d="M64.4898 31.2881C63.3538 31.2881 62.3298 31.0401 61.4178 30.5441C60.5058 30.0481 59.7858 29.3361 59.2578 28.4081C58.7298 27.4801 58.4658 26.3601 58.4658 25.0481C58.4658 23.7521 58.7298 22.6401 59.2578 21.7121C59.8018 20.7841 60.5058 20.0721 61.3698 19.5761C62.2338 19.0641 63.1378 18.8081 64.0818 18.8081C65.2178 18.8081 66.1538 19.0641 66.8898 19.5761C67.6418 20.0721 68.2018 20.7521 68.5698 21.6161C68.9538 22.4641 69.1458 23.4321 69.1458 24.5201C69.1458 24.8241 69.1298 25.1281 69.0978 25.4321C69.0658 25.7201 69.0338 25.9361 69.0018 26.0801H61.8738C62.0338 26.9441 62.3938 27.5841 62.9538 28.0001C63.5138 28.4001 64.1858 28.6001 64.9698 28.6001C65.8178 28.6001 66.6738 28.3361 67.5378 27.8081L68.7138 29.9441C68.1058 30.3601 67.4258 30.6881 66.6738 30.9281C65.9218 31.1681 65.1938 31.2881 64.4898 31.2881ZM61.8498 23.7521H66.1458C66.1458 23.0961 65.9858 22.5601 65.6658 22.1441C65.3618 21.7121 64.8578 21.4961 64.1538 21.4961C63.6098 21.4961 63.1218 21.6881 62.6898 22.0721C62.2578 22.4401 61.9778 23.0001 61.8498 23.7521Z" fill="#004152" fill-opacity="0.61"/>
<path d="M54.9801 31.2882C53.5081 31.2882 52.4521 30.8642 51.8121 30.0162C51.1881 29.1682 50.8761 28.0562 50.8761 26.6802V21.8562H49.2441V19.2402L51.0681 19.0962L51.4761 15.9282H54.4041V19.0962H57.2601V21.8562H54.4041V26.6322C54.4041 27.3042 54.5401 27.7922 54.8121 28.0962C55.1001 28.3842 55.4761 28.5282 55.9401 28.5282C56.1321 28.5282 56.3241 28.5042 56.5161 28.4562C56.7241 28.4082 56.9081 28.3522 57.0681 28.2882L57.6201 30.8562C57.3161 30.9522 56.9401 31.0482 56.4921 31.1442C56.0601 31.2402 55.5561 31.2882 54.9801 31.2882Z" fill="#004152" fill-opacity="0.61"/>
<path d="M36.6616 31.0001V19.0961H39.5416L39.7816 20.6081H39.8776C40.3896 20.1281 40.9496 19.7121 41.5576 19.3601C42.1816 18.9921 42.8936 18.8081 43.6936 18.8081C44.9896 18.8081 45.9256 19.2401 46.5016 20.1041C47.0936 20.9521 47.3896 22.1201 47.3896 23.6081V31.0001H43.8616V24.0641C43.8616 23.2001 43.7416 22.6081 43.5016 22.2881C43.2776 21.9681 42.9096 21.8081 42.3976 21.8081C41.9496 21.8081 41.5656 21.9121 41.2456 22.1201C40.9256 22.3121 40.5736 22.5921 40.1896 22.9601V31.0001H36.6616Z" fill="#004152" fill-opacity="0.61"/>
<path d="M27.0991 31.0001V19.0961H29.9791L30.2191 21.1841H30.3151C30.7471 20.3841 31.2671 19.7921 31.8751 19.4081C32.4831 19.0081 33.0911 18.8081 33.6991 18.8081C34.0351 18.8081 34.3151 18.8321 34.5391 18.8801C34.7631 18.9121 34.9551 18.9681 35.1151 19.0481L34.5391 22.0961C34.3311 22.0321 34.1231 21.9841 33.9151 21.9521C33.7231 21.9201 33.4991 21.9041 33.2431 21.9041C32.7951 21.9041 32.3231 22.0721 31.8271 22.4081C31.3471 22.7281 30.9471 23.2881 30.6271 24.0881V31.0001H27.0991Z" fill="#004152" fill-opacity="0.61"/>
<path d="M20.0054 31.2881C18.8694 31.2881 17.8454 31.0401 16.9334 30.5441C16.0214 30.0481 15.3014 29.3361 14.7734 28.4081C14.2454 27.4801 13.9814 26.3601 13.9814 25.0481C13.9814 23.7521 14.2454 22.6401 14.7734 21.7121C15.3174 20.7841 16.0214 20.0721 16.8854 19.5761C17.7494 19.0641 18.6534 18.8081 19.5974 18.8081C20.7334 18.8081 21.6694 19.0641 22.4054 19.5761C23.1574 20.0721 23.7174 20.7521 24.0854 21.6161C24.4694 22.4641 24.6614 23.4321 24.6614 24.5201C24.6614 24.8241 24.6454 25.1281 24.6134 25.4321C24.5814 25.7201 24.5494 25.9361 24.5174 26.0801H17.3894C17.5494 26.9441 17.9094 27.5841 18.4694 28.0001C19.0294 28.4001 19.7014 28.6001 20.4854 28.6001C21.3334 28.6001 22.1894 28.3361 23.0534 27.8081L24.2294 29.9441C23.6214 30.3601 22.9414 30.6881 22.1894 30.9281C21.4374 31.1681 20.7094 31.2881 20.0054 31.2881ZM17.3654 23.7521H21.6614C21.6614 23.0961 21.5014 22.5601 21.1814 22.1441C20.8774 21.7121 20.3734 21.4961 19.6694 21.4961C19.1254 21.4961 18.6374 21.6881 18.2054 22.0721C17.7734 22.4401 17.4934 23.0001 17.3654 23.7521Z" fill="#004152" fill-opacity="0.61"/>
<path d="M0.598145 31.0001V15.3521H4.12614V21.7601H4.22214L8.87815 15.3521H12.7661L8.03814 21.5921L13.6301 31.0001H9.76615L5.95014 24.4001L4.12614 26.8001V31.0001H0.598145Z" fill="#004152" fill-opacity="0.61"/>
<path d="M364.513 35.6557C364.161 35.6557 363.849 35.6317 363.577 35.5837C363.321 35.5357 363.073 35.4797 362.833 35.4157L363.457 32.7277C363.569 32.7437 363.697 32.7677 363.841 32.7997C363.985 32.8477 364.121 32.8717 364.249 32.8717C364.841 32.8717 365.297 32.7277 365.617 32.4397C365.937 32.1517 366.177 31.7757 366.337 31.3117L366.505 30.6877L361.921 19.0957H365.473L367.177 24.2077C367.353 24.7517 367.513 25.3037 367.657 25.8637C367.801 26.4237 367.953 26.9997 368.113 27.5917H368.209C368.337 27.0317 368.465 26.4717 368.593 25.9117C368.737 25.3357 368.881 24.7677 369.025 24.2077L370.465 19.0957H373.849L369.721 31.1197C369.353 32.1117 368.945 32.9437 368.497 33.6157C368.049 34.3037 367.505 34.8157 366.865 35.1517C366.241 35.4877 365.457 35.6557 364.513 35.6557Z" fill="#004152" fill-opacity="0.61"/>
<path d="M358.589 31.2877C357.117 31.2877 356.061 30.8637 355.421 30.0157C354.797 29.1677 354.485 28.0557 354.485 26.6797V21.8557H352.853V19.2397L354.677 19.0957L355.085 15.9277H358.013V19.0957H360.869V21.8557H358.013V26.6317C358.013 27.3037 358.149 27.7917 358.421 28.0957C358.709 28.3837 359.085 28.5277 359.549 28.5277C359.741 28.5277 359.933 28.5037 360.125 28.4557C360.333 28.4077 360.517 28.3517 360.677 28.2877L361.229 30.8557C360.925 30.9517 360.549 31.0477 360.101 31.1437C359.669 31.2397 359.165 31.2877 358.589 31.2877Z" fill="#004152" fill-opacity="0.61"/>
<path d="M347.372 31V19.096H350.9V31H347.372ZM349.124 17.344C348.532 17.344 348.052 17.176 347.684 16.8399C347.316 16.504 347.132 16.056 347.132 15.4959C347.132 14.9359 347.316 14.4879 347.684 14.1519C348.052 13.8159 348.532 13.6479 349.124 13.6479C349.716 13.6479 350.196 13.8159 350.564 14.1519C350.932 14.4879 351.116 14.9359 351.116 15.4959C351.116 16.056 350.932 16.504 350.564 16.8399C350.196 17.176 349.716 17.344 349.124 17.344Z" fill="#004152" fill-opacity="0.61"/>
<path d="M333.638 31.0001V19.0961H336.518L336.758 20.6081H336.854C337.366 20.1281 337.926 19.7121 338.534 19.3601C339.158 18.9921 339.87 18.8081 340.67 18.8081C341.966 18.8081 342.902 19.2401 343.478 20.1041C344.07 20.9521 344.366 22.1201 344.366 23.6081V31.0001H340.838V24.0641C340.838 23.2001 340.718 22.6081 340.478 22.2881C340.254 21.9681 339.886 21.8081 339.374 21.8081C338.926 21.8081 338.542 21.9121 338.222 22.1201C337.902 22.3121 337.55 22.5921 337.166 22.9601V31.0001H333.638Z" fill="#004152" fill-opacity="0.61"/>
<path d="M323.573 31.2877C322.277 31.2877 321.333 30.8637 320.741 30.0157C320.165 29.1517 319.877 27.9757 319.877 26.4877V19.0957H323.405V26.0317C323.405 26.8797 323.525 27.4717 323.765 27.8077C324.005 28.1277 324.381 28.2877 324.893 28.2877C325.341 28.2877 325.717 28.1837 326.021 27.9757C326.325 27.7677 326.653 27.4317 327.005 26.9677V19.0957H330.533V30.9997H327.653L327.389 29.3437H327.317C326.821 29.9357 326.277 30.4077 325.685 30.7597C325.093 31.1117 324.389 31.2877 323.573 31.2877Z" fill="#004152" fill-opacity="0.61"/>
<path d="M299.419 31.0001V19.0961H302.299L302.539 20.6321H302.635C303.131 20.1361 303.659 19.7121 304.219 19.3601C304.779 18.9921 305.451 18.8081 306.235 18.8081C307.083 18.8081 307.763 18.9841 308.275 19.3361C308.803 19.6721 309.219 20.1601 309.523 20.8001C310.051 20.2561 310.611 19.7921 311.203 19.4081C311.795 19.0081 312.483 18.8081 313.267 18.8081C314.547 18.8081 315.483 19.2401 316.075 20.1041C316.683 20.9521 316.987 22.1201 316.987 23.6081V31.0001H313.459V24.0641C313.459 23.2001 313.339 22.6081 313.099 22.2881C312.875 21.9681 312.507 21.8081 311.995 21.8081C311.403 21.8081 310.723 22.1921 309.955 22.9601V31.0001H306.427V24.0641C306.427 23.2001 306.307 22.6081 306.067 22.2881C305.843 21.9681 305.475 21.8081 304.963 21.8081C304.371 21.8081 303.699 22.1921 302.947 22.9601V31.0001H299.419Z" fill="#004152" fill-opacity="0.61"/>
<path d="M278.841 31.0001V19.0961H281.721L281.961 20.6321H282.057C282.553 20.1361 283.081 19.7121 283.641 19.3601C284.201 18.9921 284.873 18.8081 285.657 18.8081C286.505 18.8081 287.185 18.9841 287.697 19.3361C288.225 19.6721 288.641 20.1601 288.945 20.8001C289.473 20.2561 290.033 19.7921 290.625 19.4081C291.217 19.0081 291.905 18.8081 292.689 18.8081C293.969 18.8081 294.905 19.2401 295.497 20.1041C296.105 20.9521 296.409 22.1201 296.409 23.6081V31.0001H292.881V24.0641C292.881 23.2001 292.761 22.6081 292.521 22.2881C292.297 21.9681 291.929 21.8081 291.417 21.8081C290.825 21.8081 290.145 22.1921 289.377 22.9601V31.0001H285.849V24.0641C285.849 23.2001 285.729 22.6081 285.489 22.2881C285.265 21.9681 284.897 21.8081 284.385 21.8081C283.793 21.8081 283.121 22.1921 282.369 22.9601V31.0001H278.841Z" fill="#004152" fill-opacity="0.61"/>
<path d="M270.641 31.2881C269.633 31.2881 268.681 31.0481 267.785 30.5681C266.905 30.0721 266.193 29.3601 265.649 28.4321C265.105 27.4881 264.833 26.3601 264.833 25.0481C264.833 23.7201 265.105 22.5921 265.649 21.6641C266.193 20.7361 266.905 20.0321 267.785 19.5521C268.681 19.0561 269.633 18.8081 270.641 18.8081C271.649 18.8081 272.593 19.0561 273.473 19.5521C274.353 20.0321 275.065 20.7361 275.609 21.6641C276.153 22.5921 276.425 23.7201 276.425 25.0481C276.425 26.3601 276.153 27.4881 275.609 28.4321C275.065 29.3601 274.353 30.0721 273.473 30.5681C272.593 31.0481 271.649 31.2881 270.641 31.2881ZM270.641 28.4321C271.361 28.4321 271.905 28.1281 272.273 27.5201C272.641 26.8961 272.825 26.0721 272.825 25.0481C272.825 24.0081 272.641 23.1841 272.273 22.5761C271.905 21.9681 271.361 21.6641 270.641 21.6641C269.905 21.6641 269.353 21.9681 268.985 22.5761C268.633 23.1841 268.457 24.0081 268.457 25.0481C268.457 26.0721 268.633 26.8961 268.985 27.5201C269.353 28.1281 269.905 28.4321 270.641 28.4321Z" fill="#004152" fill-opacity="0.61"/>
<path d="M258.376 31.288C257.064 31.288 255.856 30.984 254.752 30.376C253.648 29.768 252.76 28.872 252.088 27.688C251.432 26.488 251.104 25.016 251.104 23.272C251.104 21.544 251.44 20.072 252.112 18.856C252.8 17.624 253.704 16.688 254.824 16.048C255.96 15.392 257.184 15.064 258.496 15.064C259.504 15.064 260.408 15.272 261.208 15.688C262.008 16.088 262.672 16.56 263.2 17.104L261.328 19.36C260.928 18.992 260.504 18.696 260.056 18.472C259.624 18.232 259.128 18.112 258.568 18.112C257.864 18.112 257.216 18.312 256.624 18.712C256.048 19.112 255.584 19.688 255.232 20.44C254.896 21.192 254.728 22.096 254.728 23.152C254.728 24.752 255.072 26 255.76 26.896C256.448 27.792 257.368 28.24 258.52 28.24C259.16 28.24 259.728 28.096 260.224 27.808C260.736 27.52 261.184 27.176 261.568 26.776L263.44 28.984C262.128 30.52 260.44 31.288 258.376 31.288Z" fill="#004152" fill-opacity="0.61"/>
<path d="M202.818 0C196.661 0 190.693 2.45787 185.088 7.30474C184.62 7.70889 184.33 8.28484 184.281 8.90589C184.232 9.52694 184.429 10.1422 184.827 10.6164C185.226 11.0905 185.794 11.3847 186.407 11.4342C187.019 11.4837 187.626 11.2844 188.094 10.8803C192.839 6.77975 197.792 4.7 202.818 4.7C207.737 4.7 212.454 6.68071 215.932 10.2064C219.41 13.7321 221.364 18.5139 221.364 23.5C221.364 28.4861 219.41 33.2679 215.932 36.7936C212.454 40.3193 207.737 42.3 202.818 42.3C191.254 42.3 184.27 32.5005 176.879 22.123C169.13 11.2474 161.118 0 147.182 0C141.034 0 135.137 2.47589 130.79 6.88299C126.442 11.2901 124 17.2674 124 23.5C124 29.7326 126.442 35.7099 130.79 40.117C135.137 44.5241 141.034 47 147.182 47C153.339 47 159.307 44.5421 164.912 39.6953C165.38 39.2911 165.67 38.7152 165.719 38.0941C165.768 37.4731 165.571 36.8578 165.173 36.3836C164.975 36.1489 164.734 35.9558 164.463 35.8155C164.192 35.6752 163.897 35.5903 163.593 35.5658C162.981 35.5163 162.374 35.7156 161.906 36.1197C157.161 40.2208 152.208 42.3 147.182 42.3C142.263 42.3 137.546 40.3193 134.068 36.7936C130.59 33.2679 128.636 28.4861 128.636 23.5C128.636 18.5139 130.59 13.7321 134.068 10.2064C137.546 6.68071 142.263 4.7 147.182 4.7C158.746 4.7 165.73 14.4995 173.121 24.877C180.87 35.7525 188.882 47 202.818 47C208.966 47 214.863 44.5241 219.21 40.117C223.558 35.7099 226 29.7326 226 23.5C226 17.2674 223.558 11.2901 219.21 6.88299C214.863 2.47589 208.966 0 202.818 0Z" fill="#004152" fill-opacity="0.61"/>
</svg>

<svg xmlns="http://www.w3.org/2000/svg" width="374" height="47" fill="none">
  <path fill="#007A99" d="M83.982 31V19.096h2.88l.24 1.536h.096a9.056 9.056 0 0 1 1.584-1.272c.56-.368 1.232-.552 2.016-.552.848 0 1.528.176 2.04.528.528.336.944.824 1.248 1.464a9.7 9.7 0 0 1 1.68-1.392c.592-.4 1.28-.6 2.064-.6 1.28 0 2.216.432 2.808 1.296.608.848.912 2.016.912 3.504V31h-3.528v-6.936c0-.864-.12-1.456-.36-1.776-.224-.32-.592-.48-1.104-.48-.592 0-1.272.384-2.04 1.152V31H90.99v-6.936c0-.864-.12-1.456-.36-1.776-.224-.32-.592-.48-1.104-.48-.592 0-1.264.384-2.016 1.152V31h-3.528ZM74.326 31.288c-1.088 0-1.952-.344-2.592-1.032-.64-.704-.96-1.56-.96-2.568 0-1.248.528-2.224 1.584-2.928 1.056-.704 2.76-1.176 5.112-1.416-.032-.528-.192-.944-.48-1.248-.272-.32-.736-.48-1.392-.48-.496 0-1 .096-1.512.288-.512.192-1.056.456-1.632.792l-1.272-2.328c.752-.464 1.552-.84 2.4-1.128a8.444 8.444 0 0 1 2.688-.432c1.52 0 2.688.44 3.504 1.32.816.88 1.224 2.232 1.224 4.056V31h-2.88l-.24-1.224h-.096a7.19 7.19 0 0 1-1.608 1.104 4.173 4.173 0 0 1-1.848.408Zm1.2-2.736c.4 0 .744-.088 1.032-.264.304-.192.608-.44.912-.744v-2.088c-1.248.16-2.112.416-2.592.768-.48.336-.72.736-.72 1.2 0 .384.12.672.36.864.256.176.592.264 1.008.264ZM64.49 31.288c-1.136 0-2.16-.248-3.072-.744a5.437 5.437 0 0 1-2.16-2.136c-.528-.928-.792-2.048-.792-3.36 0-1.296.264-2.408.792-3.336.544-.928 1.248-1.64 2.112-2.136.864-.512 1.768-.768 2.712-.768 1.136 0 2.072.256 2.808.768a4.488 4.488 0 0 1 1.68 2.04c.384.848.576 1.816.576 2.904 0 .304-.016.608-.048.912a6.602 6.602 0 0 1-.096.648h-7.128c.16.864.52 1.504 1.08 1.92.56.4 1.232.6 2.016.6.848 0 1.704-.264 2.568-.792l1.176 2.136a7.773 7.773 0 0 1-2.04.984c-.752.24-1.48.36-2.184.36Zm-2.64-7.536h4.296c0-.656-.16-1.192-.48-1.608-.304-.432-.808-.648-1.512-.648-.544 0-1.032.192-1.464.576-.432.368-.712.928-.84 1.68ZM54.98 31.288c-1.472 0-2.528-.424-3.168-1.272-.624-.848-.936-1.96-.936-3.336v-4.824h-1.632V19.24l1.824-.144.408-3.168h2.928v3.168h2.856v2.76h-2.856v4.776c0 .672.136 1.16.408 1.464.288.288.664.432 1.128.432.192 0 .384-.024.576-.072.208-.048.392-.104.552-.168l.552 2.568c-.304.096-.68.192-1.128.288a7.03 7.03 0 0 1-1.512.144ZM36.662 31V19.096h2.88l.24 1.512h.096a9.155 9.155 0 0 1 1.68-1.248c.624-.368 1.336-.552 2.136-.552 1.296 0 2.232.432 2.808 1.296.592.848.888 2.016.888 3.504V31h-3.528v-6.936c0-.864-.12-1.456-.36-1.776-.224-.32-.592-.48-1.104-.48-.448 0-.832.104-1.152.312-.32.192-.672.472-1.056.84V31h-3.528ZM27.1 31V19.096h2.88l.24 2.088h.095c.432-.8.952-1.392 1.56-1.776.608-.4 1.216-.6 1.824-.6.336 0 .616.024.84.072.224.032.416.088.576.168l-.576 3.048a4.135 4.135 0 0 0-1.296-.192c-.448 0-.92.168-1.416.504-.48.32-.88.88-1.2 1.68V31H27.1ZM20.005 31.288c-1.136 0-2.16-.248-3.072-.744a5.437 5.437 0 0 1-2.16-2.136c-.528-.928-.792-2.048-.792-3.36 0-1.296.264-2.408.792-3.336.544-.928 1.248-1.64 2.112-2.136.864-.512 1.768-.768 2.712-.768 1.136 0 2.072.256 2.808.768a4.488 4.488 0 0 1 1.68 2.04c.384.848.576 1.816.576 2.904 0 .304-.016.608-.048.912a6.602 6.602 0 0 1-.096.648H17.39c.16.864.52 1.504 1.08 1.92.56.4 1.232.6 2.016.6.848 0 1.704-.264 2.568-.792l1.176 2.136a7.773 7.773 0 0 1-2.04.984c-.752.24-1.48.36-2.184.36Zm-2.64-7.536h4.296c0-.656-.16-1.192-.48-1.608-.304-.432-.808-.648-1.512-.648-.544 0-1.032.192-1.464.576-.432.368-.712.928-.84 1.68ZM.598 31V15.352h3.528v6.408h.096l4.656-6.408h3.888l-4.728 6.24L13.63 31H9.766L5.95 24.4l-1.824 2.4V31H.598ZM364.513 35.656a5.43 5.43 0 0 1-.936-.072 10.138 10.138 0 0 1-.744-.168l.624-2.688c.112.016.24.04.384.072.144.048.28.072.408.072.592 0 1.048-.144 1.368-.432.32-.288.56-.664.72-1.128l.168-.624-4.584-11.592h3.552l1.704 5.112c.176.544.336 1.096.48 1.656.144.56.296 1.136.456 1.728h.096l.384-1.68c.144-.576.288-1.144.432-1.704l1.44-5.112h3.384l-4.128 12.024c-.368.992-.776 1.824-1.224 2.496-.448.688-.992 1.2-1.632 1.536-.624.336-1.408.504-2.352.504ZM358.589 31.288c-1.472 0-2.528-.424-3.168-1.272-.624-.848-.936-1.96-.936-3.336v-4.824h-1.632V19.24l1.824-.144.408-3.168h2.928v3.168h2.856v2.76h-2.856v4.776c0 .672.136 1.16.408 1.464.288.288.664.432 1.128.432.192 0 .384-.024.576-.072.208-.048.392-.104.552-.168l.552 2.568c-.304.096-.68.192-1.128.288a7.03 7.03 0 0 1-1.512.144ZM347.372 31V19.096h3.528V31h-3.528Zm1.752-13.656c-.592 0-1.072-.168-1.44-.504-.368-.336-.552-.784-.552-1.344s.184-1.008.552-1.344c.368-.336.848-.504 1.44-.504s1.072.168 1.44.504c.368.336.552.784.552 1.344s-.184 1.008-.552 1.344c-.368.336-.848.504-1.44.504ZM333.638 31V19.096h2.88l.24 1.512h.096a9.155 9.155 0 0 1 1.68-1.248c.624-.368 1.336-.552 2.136-.552 1.296 0 2.232.432 2.808 1.296.592.848.888 2.016.888 3.504V31h-3.528v-6.936c0-.864-.12-1.456-.36-1.776-.224-.32-.592-.48-1.104-.48-.448 0-.832.104-1.152.312-.32.192-.672.472-1.056.84V31h-3.528ZM323.573 31.288c-1.296 0-2.24-.424-2.832-1.272-.576-.864-.864-2.04-.864-3.528v-7.392h3.528v6.936c0 .848.12 1.44.36 1.776.24.32.616.48 1.128.48.448 0 .824-.104 1.128-.312.304-.208.632-.544.984-1.008v-7.872h3.528V31h-2.88l-.264-1.656h-.072a6.413 6.413 0 0 1-1.632 1.416c-.592.352-1.296.528-2.112.528ZM299.419 31V19.096h2.88l.24 1.536h.096a9.056 9.056 0 0 1 1.584-1.272c.56-.368 1.232-.552 2.016-.552.848 0 1.528.176 2.04.528.528.336.944.824 1.248 1.464a9.7 9.7 0 0 1 1.68-1.392c.592-.4 1.28-.6 2.064-.6 1.28 0 2.216.432 2.808 1.296.608.848.912 2.016.912 3.504V31h-3.528v-6.936c0-.864-.12-1.456-.36-1.776-.224-.32-.592-.48-1.104-.48-.592 0-1.272.384-2.04 1.152V31h-3.528v-6.936c0-.864-.12-1.456-.36-1.776-.224-.32-.592-.48-1.104-.48-.592 0-1.264.384-2.016 1.152V31h-3.528ZM278.841 31V19.096h2.88l.24 1.536h.096a9.056 9.056 0 0 1 1.584-1.272c.56-.368 1.232-.552 2.016-.552.848 0 1.528.176 2.04.528.528.336.944.824 1.248 1.464a9.7 9.7 0 0 1 1.68-1.392c.592-.4 1.28-.6 2.064-.6 1.28 0 2.216.432 2.808 1.296.608.848.912 2.016.912 3.504V31h-3.528v-6.936c0-.864-.12-1.456-.36-1.776-.224-.32-.592-.48-1.104-.48-.592 0-1.272.384-2.04 1.152V31h-3.528v-6.936c0-.864-.12-1.456-.36-1.776-.224-.32-.592-.48-1.104-.48-.592 0-1.264.384-2.016 1.152V31h-3.528ZM270.641 31.288a5.96 5.96 0 0 1-2.856-.72c-.88-.496-1.592-1.208-2.136-2.136-.544-.944-.816-2.072-.816-3.384 0-1.328.272-2.456.816-3.384.544-.928 1.256-1.632 2.136-2.112a5.808 5.808 0 0 1 2.856-.744c1.008 0 1.952.248 2.832.744.88.48 1.592 1.184 2.136 2.112.544.928.816 2.056.816 3.384 0 1.312-.272 2.44-.816 3.384-.544.928-1.256 1.64-2.136 2.136-.88.48-1.824.72-2.832.72Zm0-2.856c.72 0 1.264-.304 1.632-.912.368-.624.552-1.448.552-2.472 0-1.04-.184-1.864-.552-2.472-.368-.608-.912-.912-1.632-.912-.736 0-1.288.304-1.656.912-.352.608-.528 1.432-.528 2.472 0 1.024.176 1.848.528 2.472.368.608.92.912 1.656.912ZM258.376 31.288c-1.312 0-2.52-.304-3.624-.912-1.104-.608-1.992-1.504-2.664-2.688-.656-1.2-.984-2.672-.984-4.416 0-1.728.336-3.2 1.008-4.416.688-1.232 1.592-2.168 2.712-2.808a7.22 7.22 0 0 1 3.672-.984c1.008 0 1.912.208 2.712.624.8.4 1.464.872 1.992 1.416l-1.872 2.256a5.536 5.536 0 0 0-1.272-.888c-.432-.24-.928-.36-1.488-.36a3.4 3.4 0 0 0-1.944.6c-.576.4-1.04.976-1.392 1.728-.336.752-.504 1.656-.504 2.712 0 1.6.344 2.848 1.032 3.744.688.896 1.608 1.344 2.76 1.344.64 0 1.208-.144 1.704-.432.512-.288.96-.632 1.344-1.032l1.872 2.208c-1.312 1.536-3 2.304-5.064 2.304ZM202.818 0c-6.157 0-12.125 2.458-17.73 7.305a2.372 2.372 0 0 0-.261 3.312 2.298 2.298 0 0 0 3.267.264c4.745-4.101 9.698-6.181 14.724-6.181a18.42 18.42 0 0 1 13.114 5.506 18.932 18.932 0 0 1 5.432 13.294c0 4.986-1.954 9.768-5.432 13.294a18.42 18.42 0 0 1-13.114 5.506c-11.564 0-18.548-9.8-25.939-20.177C169.13 11.247 161.118 0 147.182 0c-6.148 0-12.045 2.476-16.392 6.883C126.442 11.29 124 17.267 124 23.5c0 6.233 2.442 12.21 6.79 16.617C135.137 44.524 141.034 47 147.182 47c6.157 0 12.125-2.458 17.73-7.305a2.372 2.372 0 0 0 .261-3.312 2.332 2.332 0 0 0-.71-.567 2.29 2.29 0 0 0-2.557.304c-4.745 4.1-9.698 6.18-14.724 6.18a18.42 18.42 0 0 1-13.114-5.506 18.932 18.932 0 0 1-5.432-13.294c0-4.986 1.954-9.768 5.432-13.294A18.42 18.42 0 0 1 147.182 4.7c11.564 0 18.548 9.8 25.939 20.177C180.87 35.752 188.882 47 202.818 47c6.148 0 12.045-2.476 16.392-6.883C223.558 35.71 226 29.733 226 23.5c0-6.233-2.442-12.21-6.79-16.617C214.863 2.476 208.966 0 202.818 0Z"/>
</svg>
